X: 16280
T: Grey Old Lady Of Raasay, The
R: reel
M: 4/4
K: Amixolydian
A2gA aeef|g2ag fdde|1 A2gA aeeg|fdfa gedB:|2 aAef geeg|fdfa geBA||
cAAe ecce|f2fe eccA|cAAe ecce|fAec B2BA|
cAAe ecce|f2fe ecca|f2fe eccA|faec B2Be||

